img/Logo.svg

<svg width="154" height="36" viewBox="0 0 154 36" fill="none" xmlns="http://www.w3.org/2000/svg">
<path d="M58.088 13.672C58 13.816 57.908 13.924 57.812 13.996C57.716 14.06 57.596 14.092 57.452 14.092C57.3 14.092 57.128 14.028 56.936 13.9C56.752 13.772 56.52 13.632 56.24 13.48C55.968 13.32 55.644 13.176 55.268 13.048C54.892 12.912 54.444 12.844 53.924 12.844C53.444 12.844 53.02 12.904 52.652 13.024C52.292 13.144 51.988 13.312 51.74 13.528C51.492 13.744 51.304 14 51.176 14.296C51.056 14.584 50.996 14.9 50.996 15.244C50.996 15.684 51.112 16.052 51.344 16.348C51.576 16.636 51.88 16.884 52.256 17.092C52.64 17.3 53.076 17.484 53.564 17.644C54.052 17.796 54.548 17.96 55.052 18.136C55.564 18.312 56.064 18.512 56.552 18.736C57.04 18.96 57.472 19.244 57.848 19.588C58.232 19.932 58.54 20.352 58.772 20.848C59.004 21.344 59.12 21.948 59.12 22.66C59.12 23.428 58.988 24.148 58.724 24.82C58.46 25.492 58.076 26.08 57.572 26.584C57.076 27.08 56.46 27.472 55.724 27.76C54.996 28.048 54.164 28.192 53.228 28.192C52.676 28.192 52.136 28.136 51.608 28.024C51.088 27.92 50.588 27.772 50.108 27.58C49.636 27.38 49.192 27.14 48.776 26.86C48.36 26.58 47.988 26.268 47.66 25.924L48.476 24.58C48.548 24.468 48.64 24.38 48.752 24.316C48.864 24.252 48.988 24.22 49.124 24.22C49.308 24.22 49.512 24.308 49.736 24.484C49.96 24.652 50.228 24.84 50.54 25.048C50.86 25.248 51.244 25.436 51.692 25.612C52.14 25.78 52.676 25.864 53.3 25.864C54.316 25.864 55.1 25.616 55.652 25.12C56.212 24.624 56.492 23.94 56.492 23.068C56.492 22.58 56.376 22.184 56.144 21.88C55.912 21.568 55.604 21.308 55.22 21.1C54.844 20.892 54.412 20.716 53.924 20.572C53.436 20.428 52.94 20.276 52.436 20.116C51.932 19.948 51.436 19.756 50.948 19.54C50.46 19.316 50.024 19.028 49.64 18.676C49.264 18.316 48.96 17.876 48.728 17.356C48.496 16.828 48.38 16.172 48.38 15.388C48.38 14.764 48.5 14.16 48.74 13.576C48.988 12.992 49.344 12.476 49.808 12.028C50.28 11.572 50.86 11.208 51.548 10.936C52.236 10.664 53.02 10.528 53.9 10.528C54.892 10.528 55.8 10.684 56.624 10.996C57.456 11.308 58.172 11.752 58.772 12.328L58.088 13.672ZM66.9187 15.568C67.8227 15.568 68.6387 15.716 69.3667 16.012C70.1027 16.308 70.7267 16.728 71.2387 17.272C71.7587 17.816 72.1587 18.476 72.4387 19.252C72.7187 20.028 72.8587 20.9 72.8587 21.868C72.8587 22.836 72.7187 23.708 72.4387 24.484C72.1587 25.26 71.7587 25.924 71.2387 26.476C70.7267 27.02 70.1027 27.44 69.3667 27.736C68.6387 28.032 67.8227 28.18 66.9187 28.18C66.0067 28.18 65.1827 28.032 64.4467 27.736C63.7187 27.44 63.0947 27.02 62.5747 26.476C62.0547 25.924 61.6547 25.26 61.3747 24.484C61.0947 23.708 60.9547 22.836 60.9547 21.868C60.9547 20.9 61.0947 20.028 61.3747 19.252C61.6547 18.476 62.0547 17.816 62.5747 17.272C63.0947 16.728 63.7187 16.308 64.4467 16.012C65.1827 15.716 66.0067 15.568 66.9187 15.568ZM66.9187 26.164C68.0227 26.164 68.8427 25.796 69.3787 25.06C69.9227 24.316 70.1947 23.256 70.1947 21.88C70.1947 20.504 69.9227 19.444 69.3787 18.7C68.8427 17.948 68.0227 17.572 66.9187 17.572C65.7987 17.572 64.9667 17.948 64.4227 18.7C63.8787 19.444 63.6067 20.504 63.6067 21.88C63.6067 23.256 63.8787 24.316 64.4227 25.06C64.9667 25.796 65.7987 26.164 66.9187 26.164ZM77.9656 10.24V28H75.3856V10.24H77.9656ZM92.6227 19C93.2627 19 93.8227 18.924 94.3027 18.772C94.7827 18.612 95.1827 18.392 95.5027 18.112C95.8227 17.832 96.0627 17.5 96.2227 17.116C96.3827 16.724 96.4627 16.292 96.4627 15.82C96.4627 14.876 96.1507 14.156 95.5267 13.66C94.9027 13.164 93.9587 12.916 92.6947 12.916H90.4147V19H92.6227ZM100.759 28H98.2507C97.7547 28 97.3947 27.808 97.1707 27.424L93.1387 21.604C93.0027 21.404 92.8547 21.26 92.6947 21.172C92.5347 21.084 92.2947 21.04 91.9747 21.04H90.4147V28H87.6067V10.72H92.6947C93.8307 10.72 94.8067 10.836 95.6227 11.068C96.4467 11.3 97.1227 11.632 97.6507 12.064C98.1787 12.488 98.5667 13 98.8147 13.6C99.0707 14.2 99.1987 14.868 99.1987 15.604C99.1987 16.204 99.1067 16.764 98.9227 17.284C98.7467 17.804 98.4867 18.276 98.1427 18.7C97.8067 19.124 97.3907 19.492 96.8947 19.804C96.3987 20.116 95.8347 20.36 95.2027 20.536C95.5467 20.744 95.8427 21.036 96.0907 21.412L100.759 28ZM108.714 22.648C107.794 22.68 107.018 22.756 106.386 22.876C105.754 22.988 105.242 23.136 104.85 23.32C104.458 23.496 104.174 23.708 103.998 23.956C103.83 24.204 103.746 24.476 103.746 24.772C103.746 25.06 103.79 25.308 103.878 25.516C103.974 25.716 104.102 25.884 104.262 26.02C104.43 26.148 104.622 26.244 104.838 26.308C105.062 26.364 105.306 26.392 105.57 26.392C106.242 26.392 106.818 26.268 107.298 26.02C107.786 25.764 108.258 25.396 108.714 24.916V22.648ZM101.874 17.464C103.258 16.176 104.906 15.532 106.818 15.532C107.522 15.532 108.146 15.648 108.69 15.88C109.242 16.104 109.702 16.424 110.07 16.84C110.446 17.256 110.73 17.752 110.922 18.328C111.122 18.896 111.222 19.528 111.222 20.224V28H110.07C109.822 28 109.634 27.964 109.506 27.892C109.378 27.812 109.27 27.656 109.182 27.424L108.93 26.428C108.618 26.708 108.31 26.96 108.006 27.184C107.702 27.4 107.386 27.584 107.058 27.736C106.738 27.888 106.39 28 106.014 28.072C105.646 28.152 105.238 28.192 104.79 28.192C104.294 28.192 103.83 28.124 103.398 27.988C102.974 27.852 102.606 27.648 102.294 27.376C101.982 27.096 101.734 26.752 101.55 26.344C101.374 25.936 101.286 25.456 101.286 24.904C101.286 24.432 101.41 23.972 101.658 23.524C101.914 23.076 102.33 22.676 102.906 22.324C103.49 21.964 104.254 21.668 105.198 21.436C106.15 21.204 107.322 21.072 108.714 21.04V20.224C108.714 19.344 108.526 18.688 108.15 18.256C107.774 17.824 107.222 17.608 106.494 17.608C105.998 17.608 105.582 17.672 105.246 17.8C104.91 17.92 104.618 18.052 104.37 18.196C104.122 18.34 103.902 18.476 103.71 18.604C103.518 18.724 103.314 18.784 103.098 18.784C102.922 18.784 102.77 18.74 102.642 18.652C102.522 18.556 102.422 18.44 102.342 18.304L101.874 17.464ZM110.382 10.528L107.49 13.636C107.362 13.78 107.234 13.88 107.106 13.936C106.986 13.992 106.826 14.02 106.626 14.02H105.09L106.83 11.116C106.942 10.916 107.07 10.768 107.214 10.672C107.366 10.576 107.586 10.528 107.874 10.528H110.382ZM122.872 16.84C122.872 17.024 122.84 17.204 122.776 17.38C122.72 17.556 122.636 17.704 122.524 17.824L116.32 25.996H122.668V28H113.332V26.92C113.332 26.8 113.36 26.656 113.416 26.488C113.472 26.32 113.556 26.16 113.668 26.008L119.92 17.764H113.692V15.76H122.872V16.84ZM135.509 15.76V28H133.949C133.605 28 133.385 27.836 133.289 27.508L133.097 26.368C132.841 26.64 132.569 26.888 132.281 27.112C132.001 27.336 131.701 27.528 131.381 27.688C131.061 27.848 130.717 27.972 130.349 28.06C129.989 28.148 129.601 28.192 129.185 28.192C128.513 28.192 127.921 28.08 127.409 27.856C126.897 27.632 126.465 27.316 126.113 26.908C125.769 26.5 125.509 26.012 125.333 25.444C125.157 24.868 125.069 24.236 125.069 23.548V15.76H127.649V23.548C127.649 24.372 127.837 25.012 128.213 25.468C128.597 25.924 129.177 26.152 129.953 26.152C130.521 26.152 131.049 26.024 131.537 25.768C132.033 25.504 132.497 25.144 132.929 24.688V15.76H135.509ZM141.078 18.028C141.462 17.252 141.926 16.644 142.47 16.204C143.014 15.756 143.666 15.532 144.426 15.532C144.69 15.532 144.938 15.564 145.17 15.628C145.402 15.684 145.61 15.772 145.794 15.892L145.614 17.836C145.582 17.972 145.53 18.068 145.458 18.124C145.394 18.172 145.306 18.196 145.194 18.196C145.074 18.196 144.902 18.176 144.678 18.136C144.454 18.088 144.218 18.064 143.97 18.064C143.61 18.064 143.29 18.116 143.01 18.22C142.738 18.324 142.49 18.476 142.266 18.676C142.05 18.876 141.858 19.12 141.69 19.408C141.522 19.696 141.366 20.024 141.222 20.392V28H138.642V15.76H140.142C140.414 15.76 140.602 15.812 140.706 15.916C140.81 16.012 140.882 16.184 140.922 16.432L141.078 18.028ZM150.19 15.76V28H147.61V15.76H150.19ZM150.622 12.064C150.622 12.296 150.574 12.516 150.478 12.724C150.39 12.932 150.266 13.116 150.106 13.276C149.946 13.428 149.758 13.552 149.542 13.648C149.334 13.736 149.11 13.78 148.87 13.78C148.638 13.78 148.418 13.736 148.21 13.648C148.01 13.552 147.834 13.428 147.682 13.276C147.53 13.116 147.406 12.932 147.31 12.724C147.222 12.516 147.178 12.296 147.178 12.064C147.178 11.824 147.222 11.6 147.31 11.392C147.406 11.184 147.53 11.004 147.682 10.852C147.834 10.692 148.01 10.568 148.21 10.48C148.418 10.384 148.638 10.336 148.87 10.336C149.11 10.336 149.334 10.384 149.542 10.48C149.758 10.568 149.946 10.692 150.106 10.852C150.266 11.004 150.39 11.184 150.478 11.392C150.574 11.6 150.622 11.824 150.622 12.064Z" fill="black"/>
<g clip-path="url(#clip0_115_426)">
<path d="M18 11.25C14.2805 11.25 11.25 14.2805 11.25 18C11.25 21.7195 14.2805 24.75 18 24.75C21.7195 24.75 24.75 21.7195 24.75 18C24.75 14.2805 21.7195 11.25 18 11.25ZM35.325 16.9102L28.6664 13.5844L31.0219 6.525C31.3383 5.56875 30.4312 4.66172 29.482 4.98516L22.4227 7.34063L19.0898 0.675C18.6398 -0.225 17.3602 -0.225 16.9102 0.675L13.5844 7.33359L6.51797 4.97813C5.56172 4.66172 4.65469 5.56875 4.97812 6.51797L7.33359 13.5773L0.675 16.9102C-0.225 17.3602 -0.225 18.6398 0.675 19.0898L7.33359 22.4156L4.97812 29.482C4.66172 30.4383 5.56875 31.3453 6.51797 31.0219L13.5773 28.6664L16.9031 35.325C17.3531 36.225 18.6328 36.225 19.0828 35.325L22.4086 28.6664L29.468 31.0219C30.4242 31.3383 31.3312 30.4312 31.0078 29.482L28.6523 22.4227L35.3109 19.0969C36.225 18.6398 36.225 17.3602 35.325 16.9102ZM24.3633 24.3633C20.8547 27.8719 15.1453 27.8719 11.6367 24.3633C8.12812 20.8547 8.12812 15.1453 11.6367 11.6367C15.1453 8.12813 20.8547 8.12813 24.3633 11.6367C27.8719 15.1453 27.8719 20.8547 24.3633 24.3633Z" fill="black"/>
</g>
<defs>
<clipPath id="clip0_115_426">
<rect width="36" height="36" fill="white"/>
</clipPath>
</defs>
</svg>

<svg width="154" height="36" fill="none" xmlns="http://www.w3.org/2000/svg"><path d="M58.088 13.672c-.088.144-.18.252-.276.324a.635.635 0 0 1-.36.096c-.152 0-.324-.064-.516-.192a7.53 7.53 0 0 0-.696-.42 5.272 5.272 0 0 0-.972-.432c-.376-.136-.824-.204-1.344-.204-.48 0-.904.06-1.272.18-.36.12-.664.288-.912.504a2.128 2.128 0 0 0-.564.768 2.44 2.44 0 0 0-.18.948c0 .44.116.808.348 1.104.232.288.536.536.912.744.384.208.82.392 1.308.552.488.152.984.316 1.488.492.512.176 1.012.376 1.5.6.488.224.92.508 1.296.852.384.344.692.764.924 1.26.232.496.348 1.1.348 1.812 0 .768-.132 1.488-.396 2.16a5.108 5.108 0 0 1-1.152 1.764c-.496.496-1.112.888-1.848 1.176-.728.288-1.56.432-2.496.432a7.786 7.786 0 0 1-1.62-.168 8.538 8.538 0 0 1-1.5-.444c-.472-.2-.916-.44-1.332-.72a6.716 6.716 0 0 1-1.116-.936l.816-1.344a.792.792 0 0 1 .276-.264.736.736 0 0 1 .372-.096c.184 0 .388.088.612.264.224.168.492.356.804.564.32.2.704.388 1.152.564.448.168.984.252 1.608.252 1.016 0 1.8-.248 2.352-.744.56-.496.84-1.18.84-2.052 0-.488-.116-.884-.348-1.188a2.776 2.776 0 0 0-.924-.78 6.437 6.437 0 0 0-1.296-.528 76.09 76.09 0 0 1-1.488-.456c-.504-.168-1-.36-1.488-.576a5.021 5.021 0 0 1-1.308-.864c-.376-.36-.68-.8-.912-1.32-.232-.528-.348-1.184-.348-1.968 0-.624.12-1.228.36-1.812a4.67 4.67 0 0 1 1.068-1.548c.472-.456 1.052-.82 1.74-1.092.688-.272 1.472-.408 2.352-.408.992 0 1.9.156 2.724.468a6.206 6.206 0 0 1 2.148 1.332l-.684 1.344zm8.83 1.896c.905 0 1.72.148 2.449.444.736.296 1.36.716 1.872 1.26.52.544.92 1.204 1.2 1.98.28.776.42 1.648.42 2.616 0 .968-.14 1.84-.42 2.616a5.67 5.67 0 0 1-1.2 1.992 5.192 5.192 0 0 1-1.872 1.26c-.728.296-1.544.444-2.448.444-.912 0-1.736-.148-2.472-.444a5.333 5.333 0 0 1-1.872-1.26 5.67 5.67 0 0 1-1.2-1.992c-.28-.776-.42-1.648-.42-2.616 0-.968.14-1.84.42-2.616.28-.776.68-1.436 1.2-1.98a5.333 5.333 0 0 1 1.872-1.26c.736-.296 1.56-.444 2.472-.444zm0 10.596c1.105 0 1.925-.368 2.46-1.104.545-.744.817-1.804.817-3.18 0-1.376-.272-2.436-.816-3.18-.536-.752-1.356-1.128-2.46-1.128-1.12 0-1.952.376-2.496 1.128-.544.744-.816 1.804-.816 3.18 0 1.376.272 2.436.816 3.18.544.736 1.376 1.104 2.496 1.104zM77.967 10.24V28h-2.58V10.24h2.58zM92.623 19c.64 0 1.2-.076 1.68-.228.48-.16.88-.38 1.2-.66.32-.28.56-.612.72-.996.16-.392.24-.824.24-1.296 0-.944-.312-1.664-.936-2.16-.624-.496-1.568-.744-2.832-.744h-2.28V19h2.208zm8.136 9h-2.508c-.496 0-.856-.192-1.08-.576l-4.032-5.82a1.33 1.33 0 0 0-.444-.432c-.16-.088-.4-.132-.72-.132h-1.56V28h-2.808V10.72h5.088c1.136 0 2.112.116 2.928.348.824.232 1.5.564 2.028.996a3.82 3.82 0 0 1 1.164 1.536c.256.6.384 1.268.384 2.004a5 5 0 0 1-.276 1.68c-.176.52-.436.992-.78 1.416a4.907 4.907 0 0 1-1.248 1.104 6.364 6.364 0 0 1-1.692.732c.344.208.64.5.888.876L100.759 28zm7.955-5.352c-.92.032-1.696.108-2.328.228-.632.112-1.144.26-1.536.444-.392.176-.676.388-.852.636-.168.248-.252.52-.252.816 0 .288.044.536.132.744.096.2.224.368.384.504.168.128.36.224.576.288.224.056.468.084.732.084.672 0 1.248-.124 1.728-.372.488-.256.96-.624 1.416-1.104v-2.268zm-6.84-5.184c1.384-1.288 3.032-1.932 4.944-1.932.704 0 1.328.116 1.872.348a3.634 3.634 0 0 1 1.38.96c.376.416.66.912.852 1.488.2.568.3 1.2.3 1.896V28h-1.152c-.248 0-.436-.036-.564-.108-.128-.08-.236-.236-.324-.468l-.252-.996c-.312.28-.62.532-.924.756-.304.216-.62.4-.948.552-.32.152-.668.264-1.044.336-.368.08-.776.12-1.224.12-.496 0-.96-.068-1.392-.204a3.097 3.097 0 0 1-1.104-.612 3.052 3.052 0 0 1-.744-1.032c-.176-.408-.264-.888-.264-1.44 0-.472.124-.932.372-1.38.256-.448.672-.848 1.248-1.2.584-.36 1.348-.656 2.292-.888.952-.232 2.124-.364 3.516-.396v-.816c0-.88-.188-1.536-.564-1.968-.376-.432-.928-.648-1.656-.648-.496 0-.912.064-1.248.192-.336.12-.628.252-.876.396-.248.144-.468.28-.66.408-.192.12-.396.18-.612.18a.785.785 0 0 1-.456-.132 1.258 1.258 0 0 1-.3-.348l-.468-.84zm8.508-6.936-2.892 3.108a1.147 1.147 0 0 1-.384.3c-.12.056-.28.084-.48.084h-1.536l1.74-2.904c.112-.2.24-.348.384-.444.152-.096.372-.144.66-.144h2.508zm12.49 6.312c0 .184-.032.364-.096.54-.056.176-.14.324-.252.444l-6.204 8.172h6.348V28h-9.336v-1.08c0-.12.028-.264.084-.432.056-.168.14-.328.252-.48l6.252-8.244h-6.228V15.76h9.18v1.08zm12.637-1.08V28h-1.56c-.344 0-.564-.164-.66-.492l-.192-1.14c-.256.272-.528.52-.816.744-.28.224-.58.416-.9.576a4.893 4.893 0 0 1-2.196.504c-.672 0-1.264-.112-1.776-.336a3.582 3.582 0 0 1-1.296-.948 4.143 4.143 0 0 1-.78-1.464 6.465 6.465 0 0 1-.264-1.896V15.76h2.58v7.788c0 .824.188 1.464.564 1.92.384.456.964.684 1.74.684.568 0 1.096-.128 1.584-.384a5.45 5.45 0 0 0 1.392-1.08V15.76h2.58zm5.569 2.268c.384-.776.848-1.384 1.392-1.824.544-.448 1.196-.672 1.956-.672.264 0 .512.032.744.096.232.056.44.144.624.264l-.18 1.944c-.032.136-.084.232-.156.288a.431.431 0 0 1-.264.072c-.12 0-.292-.02-.516-.06a3.372 3.372 0 0 0-.708-.072c-.36 0-.68.052-.96.156-.272.104-.52.256-.744.456-.216.2-.408.444-.576.732a7.06 7.06 0 0 0-.468.984V28h-2.58V15.76h1.5c.272 0 .46.052.564.156.104.096.176.268.216.516l.156 1.596zm9.112-2.268V28h-2.58V15.76h2.58zm.432-3.696c0 .232-.048.452-.144.66a1.723 1.723 0 0 1-.372.552c-.16.152-.348.276-.564.372a1.707 1.707 0 0 1-.672.132c-.232 0-.452-.044-.66-.132-.2-.096-.376-.22-.528-.372a2.03 2.03 0 0 1-.372-.552 1.676 1.676 0 0 1-.132-.66c0-.24.044-.464.132-.672.096-.208.22-.388.372-.54.152-.16.328-.284.528-.372.208-.096.428-.144.66-.144.24 0 .464.048.672.144.216.088.404.212.564.372.16.152.284.332.372.54.096.208.144.432.144.672z" fill="#000"/><g clip-path="url(#a)"><path d="M18 11.25c-3.72 0-6.75 3.03-6.75 6.75s3.03 6.75 6.75 6.75 6.75-3.03 6.75-6.75-3.03-6.75-6.75-6.75zm17.325 5.66-6.659-3.326 2.356-7.059c.316-.956-.59-1.863-1.54-1.54l-7.06 2.356L19.09.675c-.45-.9-1.73-.9-2.18 0l-3.326 6.659-7.066-2.356c-.956-.316-1.863.59-1.54 1.54l2.356 7.06L.675 16.91c-.9.45-.9 1.73 0 2.18l6.659 3.326-2.356 7.066c-.316.956.59 1.863 1.54 1.54l7.06-2.356 3.325 6.659c.45.9 1.73.9 2.18 0l3.326-6.659 7.059 2.356c.956.316 1.863-.59 1.54-1.54l-2.356-7.06 6.659-3.325c.914-.457.914-1.737.014-2.187zm-10.962 7.453c-3.508 3.509-9.218 3.509-12.726 0-3.509-3.508-3.509-9.218 0-12.726 3.508-3.509 9.218-3.509 12.726 0 3.509 3.508 3.509 9.218 0 12.726z" fill="#000"/></g><defs><clipPath id="a"><path fill="#fff" d="M0 0h36v36H0z"/></clipPath></defs></svg>
